assets/images/img_campaign.svg

<svg width="46" height="46" viewBox="0 0 46 46" fill="none" xmlns="http://www.w3.org/2000/svg">
<g clip-path="url(#clip0_2815_20862)">
<path d="M34.5007 21.0834V24.9167H42.1673V21.0834H34.5007ZM30.6673 33.7526C32.5073 35.1134 34.9032 36.9151 36.8007 38.3334C37.5673 37.3176 38.334 36.2826 39.1007 35.2667C37.2032 33.8484 34.8073 32.0467 32.9673 30.6667C32.2007 31.7017 31.434 32.7367 30.6673 33.7526ZM39.1007 10.7334C38.334 9.71758 37.5673 8.68258 36.8007 7.66675C34.9032 9.08508 32.5073 10.8867 30.6673 12.2667C31.434 13.2826 32.2007 14.3176 32.9673 15.3334C34.8073 13.9534 37.2032 12.1709 39.1007 10.7334ZM7.66732 17.2501C5.55898 17.2501 3.83398 18.9751 3.83398 21.0834V24.9167C3.83398 27.0251 5.55898 28.7501 7.66732 28.7501H9.58398V36.4167H13.4173V28.7501H15.334L24.9173 34.5001V11.5001L15.334 17.2501H7.66732ZM29.709 23.0001C29.709 20.4509 28.5973 18.1509 26.834 16.5792V29.4017C28.5973 27.8492 29.709 25.5492 29.709 23.0001Z" fill="#FFE142"/>
</g>
<defs>
<clipPath id="clip0_2815_20862">
<rect width="46" height="46" fill="white"/>
</clipPath>
</defs>
</svg>

<svg xmlns="http://www.w3.org/2000/svg" width="46" height="46" fill="none" viewBox="0 0 46 46"><g clip-path="url(#a)"><path fill="#FFE142" d="M34.503 21.08v3.834h7.666v-3.833h-7.666Zm-3.834 12.67c1.84 1.36 4.236 3.162 6.134 4.58.766-1.015 1.533-2.05 2.3-3.066-1.898-1.418-4.294-3.22-6.134-4.6a406.204 406.204 0 0 1-2.3 3.086Zm8.434-23.02c-.767-1.015-1.534-2.05-2.3-3.066-1.898 1.418-4.294 3.22-6.134 4.6.767 1.016 1.534 2.05 2.3 3.067 1.84-1.38 4.236-3.163 6.134-4.6ZM7.669 17.248a3.845 3.845 0 0 0-3.833 3.834v3.833a3.845 3.845 0 0 0 3.833 3.833h1.917v7.667h3.833v-7.667h1.917l9.583 5.75v-23l-9.583 5.75H7.669Zm22.042 5.75a8.585 8.585 0 0 0-2.875-6.42V29.4a8.514 8.514 0 0 0 2.875-6.402Z"/></g><defs><clipPath id="a"><path fill="#fff" d="M0 0h46v46H0z"/></clipPath></defs></svg>
